X:22
T:Branle de Bourgogne
C:Claude GERVAISE (1556)
N:Branle
R:Branle double
Q:1/2=72
I:abc2nwc
Z:Transcrit et/ou corrig? par Michel BELLON - 2006-11-29
Z:Pour toute observation mailto:galouvielle@free.fr
M:4/2
L:1/8
K:C
V:1
c4c4B2A2B2c2|d8d4e4|d4c4c4B4|c8c8::d2c2d2e2d2c2B2A2|
B8G4G4|A2G2A2B2c4d4|A6G2F2E2F2G2|A2G2A2B2c4d4|A8A4A4|
d2c2d2e2d2c2B2A2|B8G4G4|A2G2A2B2c4d4|A6G2F4_B4|A4G4G4^F4|G8G8:|
V:2
g4g4g2f2g2a2|g12g4|g4e2f2g4g4|e8e8:|
|:g4g4g4f4|g8g4d4|f4f4e4d4|d12d4|c4f4e4d4|d12d4|
g4g4g4f4|g8g4d4|f4f4e4d4|d12g4|f4d4e4d2c2|d8d8:|
V:3
e4e4d2c2B2A2|B8B4c4|B4c4d4d4|c8c8:|
|:B2A2B2c2d4d4|d8B4B4|c4c4c2B2A2G2|F2E2F2G2A4A4|
A4c4c2B2A2G2|F2E2F2G2A8|B2A2B2c2d4d4|d8B4B4|
c4c4c2B2A2G2|F2E2F2G2A4d4|c4B4A4A4|G8G8:|
V:4
K:C
C,4C,4G,4G,4|G,8G,4C,4|G,4A,4G,4G,4|C,8C,8:|
|:G,,4G,,4G,,4D,4|G,,8G,,4G,4|F,2E,2F,2G,2A,4D,4|
D,8D,4D,4|F,2E,2F,2G,2A,4D,4|D,8D,4D,4|
G,,4G,,4G,,4D,4|G,,8G,,4G,4|F,2E,2F,2G,2A,4F,4|
F,12G,,4|A,,4B,,4C,4D,4|G,,8G,,8:|
<end>
<start>
